public/images/logos/socketio.svg

<svg width="28" height="28" viewBox="0 0 28 28" fill="none" xmlns="http://www.w3.org/2000/svg">
<path d="M10.8153 0.889642C14.2848 -0.000121921 18.1193 0.518361 21.1791 2.40681C25.0328 4.71138 27.5487 9.07074 27.6127 13.5582C27.7535 18.0903 25.3913 22.5842 21.5953 25.0488C17.3703 27.891 11.5258 27.9999 7.21119 25.2984C2.81344 22.6738 0.246403 17.3798 0.90585 12.297C1.43702 6.92617 5.58531 2.18918 10.8153 0.88975V0.889642Z" fill="#010101"/>
<path d="M10.284 3.08563C16.8391 0.460963 24.8794 5.30687 25.5579 12.3357C26.6142 18.6603 21.3649 25.0874 14.957 25.2731C8.86286 25.8812 2.97354 20.7151 2.80074 14.5955C2.34624 9.64075 5.611 4.72441 10.284 3.08563Z" fill="white"/>
<path d="M10.9433 13.1806C13.8816 10.78 16.7558 8.29623 19.7581 5.96606C18.1833 8.3859 16.5638 10.7736 14.989 13.1933C13.6383 13.1998 12.2877 13.1998 10.9433 13.1805V13.1806ZM13.4271 14.5184C14.7842 14.5184 16.1349 14.5184 17.4856 14.5377C14.5281 16.9254 11.6667 19.4283 8.65796 21.7522C10.2328 19.3323 11.8523 16.9383 13.4271 14.5184Z" fill="#010101"/>
</svg>

<svg xmlns="http://www.w3.org/2000/svg" width="28" height="28" fill="none" xmlns:v="https://vecta.io/nano"><path d="M10.815.89c3.47-.89 7.304-.371 10.364 1.517 3.854 2.305 6.37 6.664 6.434 11.151.141 4.532-2.221 9.026-6.017 11.491-4.225 2.842-10.07 2.951-14.384.25C2.813 22.674.246 17.38.906 12.297 1.437 6.926 5.585 2.189 10.815.89h0z" fill="#010101"/><path d="M10.284 3.086c6.555-2.625 14.595 2.221 15.274 9.25 1.056 6.325-4.193 12.752-10.601 12.937-6.094.608-11.983-4.558-12.156-10.678-.454-4.955 2.81-9.871 7.483-11.51z" fill="#fff"/><path d="M10.943 13.181l8.815-7.215-4.769 7.227c-1.351.006-2.701.006-4.046-.013h0zm2.484 1.338l4.059.019-8.828 7.214 4.769-7.234z" fill="#010101"/></svg>
